X:1
T:Title
%%score { ( 1 4 ) | ( 2 3 ) }
L:1/8
Q:1/4=106
M:4/4
K:D
V:1 treble nm="Grand Piano"
V:4 treble 
V:2 bass 
V:3 bass 
V:1
 F2 F>[EG] [FA]2 [FA]2 | [GB]2 [Bd]2 [GB]2 [FA]2 | [Fd]2 [Gd]2 [Fd]2 [Ac]B | %3
w: Wm.~J.~Kirkpatrick * * * *|||
 [DFA]2 [A,DF]2 [A,CE]4 | [A,DF]2 [A,DF]>[EG] [FA]2 [FA]2 | [GB]2 [Bd]2 [GB]2 [FA]2 | %6
w: |||
 [Fd]2 [Gd]2 [Fd]2 z z/ E/ | F2 [CE]2 D4 | [CE]2 [CE]>[DF] [EG]4 | [DF]2 [DF]>[EG] [FA]4 | %10
w: ||||
 ^G2 G>A B2 c2 | z2 ^G2 z4 | [Fd]2 [Fd]>[Fd] [Fd]2 [FA]2 | [GB]2 [GB]2 [FA]4 | B2 B2 A2 z z/ E/ | %15
w: |||||
 F2 [CE]2 D4 |] %16
w: |
V:2
 [D,A,D]2 [D,A,D]>[D,D] [D,D]2 [D,D]2 | [G,D]2 [G,D]2 [D,D]2 [D,D]2 | [D,A,]2 [D,B,]2 [D,A,]2 z G | %3
 D,2 D,2 A,,4 | D,2 D,>[D,D] [D,D]2 [D,D]2 | [G,D]2 [G,D]2 [D,D]2 [D,D]2 | %6
 [D,A,]2 [D,B,]2 [D,A,]2 [F,A,]>[G,B,] | [A,D]2 [A,,G,]2 [D,F,]4 | %8
 [A,,A,]2 [A,,A,]>[A,,A,] [A,,A,]4 | [D,A,]2 [D,A,]>[D,D] [D,D]4 | %10
 [E,B,E]2 [E,B,E]>[E,CE] [E,DE]2 [E,A,E]2 | [E,B,E]2 .[E,B,E]2 A,,2[K:treble] Bc | %12
 [D,A,]2 [D,A,]>[D,A,] [D,A,]2 [D,D]2 | [D,D]2 [D,D]2 [D,D]4 | [G,D]2 [G,D]2 [F,D]2 [G,B,]2 | %15
 [A,D]2 [A,,G,]2 [D,F,]4 |] %16
V:3
 x8 | x8 | z4 z2 [D,A,]2 | x8 | x8 | x8 | x8 | x8 | x8 | x8 | x8 | x6[K:treble] x2 | x8 | x8 | x8 | %15
 x8 |] %16
V:4
 x8 | x8 | x8 | x8 | x8 | x8 | z4 z2 D2 | x8 | x8 | x8 | x8 | d2 z D [A,CA]2 z2 | x8 | x8 | %14
 z4 z2 D2 | x8 |] %16

